X:2
T:Lugumleik
R:halling
C:efter Hans W. Brimi
D:Ale M\"oller, Sten K\"allman, Thomas Ringdahl: Vind
D:Den Fule: Lugumleik
O:Norway
Z:id:hn-halling-2
M:1/4
Q:1/4=100
K:Ddor
A, | DF/E/ | CC | DF | Ac | c/B/A/G/ | BB/c/ | AA/F/ | DA, |
DF/E/ | CC | DF | Ac | c/B/A/G/ | BB/c/ |[1 AA- | A :|
[2 AA- | A |: c/B/ | GG- | GA/F/ | DD- | DF/E/ | CC |
EE/F/ | DD/F/ | AA- | Ac/B/ | GG- | GA/F/ | DD- | DF/E/ |
CC | EE/F/ |[1 DD | DF/A/ | A :|[2 DD | D ||


